X:1
T:Title
%%score { ( 1 3 ) | ( 2 4 ) }
L:1/8
M:3/4
K:Db
V:1 treble nm="Grand Piano"
V:3 treble 
V:2 bass 
V:4 bass 
V:1
 z2 z2[Q:1/4=110] [FA]2 | [Af]2 [Fd]2 [Gc]2 | e2 z2 z2 | [DFA]4 [_Fd]2 | [FA]4 [FA]2 | %5
 [GA]4 [EG]2 | [CE]4 G2 | G2 F2 E2 | D4 [FA]2 | [Af]2 [Fd]2 [Gc]2 | e2 d2 B2 | [FA]4 [_Fd]2 | %12
 [FA]4 [FA]2 | [FA]3 [_F=G] [=FA]2 | B4 A2 | c4 z2 | [Fd]4 [FA]2 | [FA]4 [FA]2 | B4 A2 | A4 G2 | %20
 F4 [FA]2 | [Fd]4 [Fd]2 | d2 c2 d2 | f2 z2 z2 | [EAc]4 A2 | [Af]2 [Fd]2 [Gc]2 | e2 d2 B2 | %27
 [FA]4 [_Fd]2 | [FA]4 [FA]2 | [FA]3 [_F=G] [=FA]2 | B4 A2 | c4 z2 |[M:2/4] [Fd]4 |] %33
V:2
 z2 z2 [D,D]2 | [D,D]4 [D,D]2 | z2[K:treble] d2[K:bass] D,2 | D,4 [D,B,]2 | [D,D]4 [D,D]2 | %5
 [E,C]4 [C,A,]2 | [A,,A,]4 [E,A,C]2 | [E,C]2 z2 z2 | [D,F,A,]4 [D,A,]2 | [D,A,]4 [D,=A,]2 | %10
 [G,B,G]4 [G,DG]2 | [D,D]4 [D,=G,]2 | [D,A,]4 [D,D]2 | [D,D]4 [D,D]2 | [G,DG]4 [F,D]2 | %15
 [E,A,]4 [A,,A,]2 | [D,A,]4 [D,D]2 | [D,D]4 [D,D]2 | [G,DG]4 [G,CE]2 | [F,D]4 [E,A,C]2 | %20
 [D,A,D]4 [D,A,]2 | [D,A,]4 [D,A,]2 | [B,F]4 [B,DF]2 | z2 e2[K:bass] E,2 | A,4 A,2 | %25
 [D,A,]4 [D,=A,]2 | [G,B,G]4 [G,DG]2 | [D,D]4 [D,=G,]2 | [D,A,]4 [D,D]2 | [D,D]4 [D,D]2 | %30
 [G,DG]4 [F,D]2 | [E,A,]4 [A,,A,]2 |[M:2/4] [D,A,]4 |] %33
V:3
 x6 | x6 | G4 [CGB]2 | x6 | x6 | x6 | x6 | x6 | x6 | x6 | x6 | x6 | x6 | x6 | x6 | G3- [GB] [Gc]2 | %16
 x6 | x6 | x6 | x6 | x6 | x6 | x6 | =G4 [EGd]2 | x6 | x6 | x6 | x6 | x6 | x6 | x6 | %31
 G3- [GB] [Gc]2 |[M:2/4] x4 |] %33
V:4
 x6 | x6 | [D,B,]4[K:treble][K:bass] z2 | x6 | x6 | x6 | x6 | A,2- [D,A,D]2 [C,G,A,]2 | x6 | x6 | %10
 x6 | x6 | x6 | x6 | x6 | x6 | x6 | x6 | x6 | x6 | x6 | x6 | x6 | [E,D]4[K:bass] z2 | x6 | x6 | %26
 x6 | x6 | x6 | x6 | x6 | x6 |[M:2/4] x4 |] %33

